X: 23625
T: Lilting Fisherman, The
R: jig
M: 6/8
K: Gmajor
Bc|:dBG GBd|~g3 ege|dBG GFG|AFD cBA|
dBG GBd|~g3 ege|dBG FGA|BGF Gz2:|
K:Dmaj
ABA AFA|~f3 f2e|dce dcB|AFF F2G|
AFA A2d|BGB B2d|cBc ABc|1 dfe dcB:|2 d3 zB=c||

